X:63
T:Bouree d'Isabel
C:Dave Roberts
Z:Anahata (anahata@treewind.co.uk)
M:3/8
K:C
"Gm"d2^cd=cd | BdAdGd | GBdfed | "C"e2c=Bc^c |
"Gm"d2^cd=cd | BdAdGd | GBdfed | "C"e6 ||
"C"c2=Bce_e | "Gm"dBABGB | "C"c2=Bce_e | "Gm"dbagfd |
"C"c2=Bce_e | "Gm"dBABGB | "Gm"GBdfed | "C"e6 ||
